thiagoandradez/assets/logo.svg

<svg width="84" height="25" viewBox="0 0 84 25" fill="none" xmlns="http://www.w3.org/2000/svg">
<path d="M0.176 24V1.6H4.272V20.8H14.192V24H0.176ZM24.4803 24.384C22.8376 24.384 21.3869 24.1067 20.1283 23.552C18.8696 22.976 17.8776 22.1653 17.1523 21.12C16.4269 20.0533 16.0536 18.7627 16.0323 17.248H20.3523C20.3949 18.2933 20.7683 19.1787 21.4723 19.904C22.1976 20.608 23.1896 20.96 24.4483 20.96C25.5363 20.96 26.4003 20.704 27.0403 20.192C27.6803 19.6587 28.0003 18.9547 28.0003 18.08C28.0003 17.1627 27.7123 16.448 27.1363 15.936C26.5816 15.424 25.8349 15.008 24.8963 14.688C23.9576 14.368 22.9549 14.0267 21.8883 13.664C20.1603 13.0667 18.8376 12.2987 17.9203 11.36C17.0243 10.4213 16.5763 9.17333 16.5763 7.616C16.5549 6.29333 16.8643 5.16267 17.5043 4.224C18.1656 3.264 19.0616 2.528 20.1923 2.016C21.3229 1.48267 22.6243 1.216 24.0963 1.216C25.5896 1.216 26.9016 1.48267 28.0323 2.016C29.1843 2.54933 30.0803 3.296 30.7203 4.256C31.3816 5.216 31.7336 6.35733 31.7763 7.68H27.3923C27.3709 6.89067 27.0616 6.19733 26.4643 5.6C25.8883 4.98133 25.0776 4.672 24.0323 4.672C23.1363 4.65067 22.3789 4.87467 21.7603 5.344C21.1629 5.792 20.8643 6.45333 20.8643 7.328C20.8643 8.07467 21.0989 8.672 21.5683 9.12C22.0376 9.54667 22.6776 9.90933 23.4883 10.208C24.2989 10.5067 25.2269 10.8267 26.2723 11.168C27.3816 11.552 28.3949 12 29.3123 12.512C30.2296 13.024 30.9656 13.7067 31.5203 14.56C32.0749 15.392 32.3523 16.4693 32.3523 17.792C32.3523 18.9653 32.0536 20.0533 31.4563 21.056C30.8589 22.0587 29.9736 22.8693 28.8003 23.488C27.6269 24.0853 26.1869 24.384 24.4803 24.384ZM38.038 5.664C37.2913 5.664 36.6727 5.44 36.182 4.992C35.7127 4.544 35.478 3.97867 35.478 3.296C35.478 2.61333 35.7127 2.05867 36.182 1.632C36.6727 1.184 37.2913 0.959999 38.038 0.959999C38.7847 0.959999 39.3927 1.184 39.862 1.632C40.3527 2.05867 40.598 2.61333 40.598 3.296C40.598 3.97867 40.3527 4.544 39.862 4.992C39.3927 5.44 38.7847 5.664 38.038 5.664ZM35.99 24V8.128H40.086V24H35.99ZM44.3613 24V0.959999H48.4573V24H44.3613ZM56.9305 24L51.1065 8.128H55.3945L59.4265 20.128L63.4585 8.128H67.7465L61.8905 24H56.9305ZM74.8333 24.384C73.4679 24.384 72.3479 24.1707 71.4733 23.744C70.5986 23.296 69.9479 22.7093 69.5213 21.984C69.0946 21.2587 68.8813 20.4587 68.8813 19.584C68.8813 18.112 69.4573 16.9173 70.6093 16C71.7613 15.0827 73.4893 14.624 75.7933 14.624H79.8253V14.24C79.8253 13.152 79.5159 12.352 78.8973 11.84C78.2786 11.328 77.5106 11.072 76.5933 11.072C75.7613 11.072 75.0359 11.2747 74.4173 11.68C73.7986 12.064 73.4146 12.64 73.2653 13.408H69.2653C69.3719 12.256 69.7559 11.2533 70.4173 10.4C71.0999 9.54667 71.9746 8.896 73.0413 8.448C74.1079 7.97867 75.3026 7.744 76.6253 7.744C78.8866 7.744 80.6679 8.30933 81.9693 9.44C83.2706 10.5707 83.9213 12.1707 83.9213 14.24V24H80.4333L80.0493 21.44C79.5799 22.2933 78.9186 22.9973 78.0653 23.552C77.2333 24.1067 76.1559 24.384 74.8333 24.384ZM75.7613 21.184C76.9346 21.184 77.8413 20.8 78.4813 20.032C79.1426 19.264 79.5586 18.3147 79.7293 17.184H76.2413C75.1533 17.184 74.3746 17.3867 73.9053 17.792C73.4359 18.176 73.2013 18.656 73.2013 19.232C73.2013 19.8507 73.4359 20.3307 73.9053 20.672C74.3746 21.0133 74.9933 21.184 75.7613 21.184Z" fill="#02073E"/>
</svg>

<?xml version="1.0"?>
<svg width="84" height="25" xmlns="http://www.w3.org/2000/svg" xmlns:svg="http://www.w3.org/2000/svg">
 <g class="layer">
  <title>Layer 1</title>
  <path d="m0.18,24l0,-22.4l4.09,0l0,19.2l9.92,0l0,3.2l-14.01,0zm24.3,0.38c-1.64,0 -3.09,-0.27 -4.35,-0.83c-1.26,-0.57 -2.25,-1.38 -2.98,-2.43c-0.72,-1.07 -1.1,-2.36 -1.12,-3.87l4.32,0c0.04,1.04 0.42,1.93 1.12,2.65c0.73,0.71 1.72,1.06 2.98,1.06c1.09,0 1.95,-0.26 2.59,-0.77c0.64,-0.53 0.96,-1.24 0.96,-2.11c0,-0.92 -0.29,-1.63 -0.86,-2.14c-0.56,-0.52 -1.31,-0.93 -2.24,-1.25c-0.94,-0.32 -1.95,-0.66 -3.01,-1.03c-1.73,-0.59 -3.05,-1.36 -3.97,-2.3c-0.9,-0.94 -1.34,-2.19 -1.34,-3.74c-0.03,-1.33 0.28,-2.46 0.92,-3.4c0.67,-0.96 1.56,-1.69 2.69,-2.2c1.13,-0.54 2.43,-0.8 3.91,-0.8c1.49,0 2.8,0.26 3.93,0.8c1.15,0.53 2.05,1.28 2.69,2.24c0.66,0.96 1.01,2.1 1.06,3.42l-4.39,0c-0.02,-0.79 -0.33,-1.48 -0.93,-2.08c-0.57,-0.62 -1.38,-0.93 -2.43,-0.93c-0.89,-0.02 -1.65,0.2 -2.27,0.67c-0.6,0.45 -0.9,1.11 -0.9,1.99c0,0.74 0.24,1.34 0.71,1.79c0.47,0.43 1.11,0.79 1.92,1.09c0.81,0.3 1.74,0.62 2.78,0.96c1.11,0.38 2.12,0.83 3.04,1.34c0.92,0.51 1.66,1.2 2.21,2.05c0.55,0.83 0.83,1.91 0.83,3.23c0,1.18 -0.3,2.26 -0.89,3.27c-0.6,1 -1.49,1.81 -2.66,2.43c-1.17,0.6 -2.61,0.89 -4.32,0.89zm13.56,-18.72c-0.75,0 -1.37,-0.22 -1.86,-0.67c-0.47,-0.45 -0.7,-1.01 -0.7,-1.69c0,-0.69 0.23,-1.24 0.7,-1.67c0.49,-0.45 1.11,-0.67 1.86,-0.67c0.74,0 1.35,0.22 1.82,0.67c0.49,0.43 0.74,0.98 0.74,1.67c0,0.68 -0.25,1.24 -0.74,1.69c-0.47,0.45 -1.08,0.67 -1.82,0.67zm-2.05,18.34l0,-15.87l4.1,0l0,15.87l-4.1,0zm8.37,0l0,-23.04l4.1,0l0,23.04l-4.1,0zm12.57,0l-5.82,-15.87l4.28,0l4.04,12l4.03,-12l4.29,0l-5.86,15.87l-4.96,0zm17.9,0.38c-1.36,0 -2.48,-0.21 -3.36,-0.64c-0.87,-0.44 -1.52,-1.03 -1.95,-1.76c-0.43,-0.72 -0.64,-1.52 -0.64,-2.4c0,-1.47 0.58,-2.66 1.73,-3.58c1.15,-0.92 2.88,-1.38 5.18,-1.38l4.04,0l0,-0.38c0,-1.09 -0.31,-1.89 -0.93,-2.4c-0.62,-0.51 -1.39,-0.77 -2.31,-0.77c-0.83,0 -1.55,0.2 -2.17,0.61c-0.62,0.38 -1.01,0.96 -1.15,1.73l-4,0c0.1,-1.15 0.49,-2.16 1.15,-3.01c0.68,-0.85 1.55,-1.5 2.62,-1.95c1.07,-0.47 2.26,-0.71 3.59,-0.71c2.26,0 4.04,0.57 5.34,1.7c1.3,1.13 1.95,2.73 1.95,4.8l0,9.76l-3.49,0l-0.38,-2.56c-0.47,0.85 -1.13,1.56 -1.98,2.11c-0.84,0.56 -1.91,0.83 -3.24,0.83zm0.93,-3.2c1.17,0 2.08,-0.38 2.72,-1.15c0.66,-0.77 1.08,-1.72 1.25,-2.85l-3.49,0c-1.09,0 -1.87,0.21 -2.33,0.61c-0.47,0.39 -0.71,0.87 -0.71,1.44c0,0.62 0.24,1.1 0.71,1.44c0.46,0.34 1.08,0.51 1.85,0.51z" fill="#02073E" id="svg_1"/>
  <rect fill="#ffffff" height="31" id="svg_2" stroke="#000000" width="95" x="-7" y="-2.57"/>
  <text fill="#000000" font-family="Serif" font-size="59" id="svg_3" stroke="#000000" stroke-width="0" text-anchor="middle" transform="matrix(0.483613 0 0 0.500503 1.16968 2.86565)" x="18.26" xml:space="preserve" y="41.26">T</text>
  <text fill="#000000" font-family="Serif" font-size="59" id="svg_4" stroke="#000000" stroke-width="0" text-anchor="middle" transform="matrix(0.330462 0 0 0.560591 -10.498 14.2673)" x="183.07" xml:space="preserve" y="17.53">andrade</text>
 </g>
</svg>
